TileServer und Tiles/svg/9/7_15.svg

<?xml version='1.0' encoding='UTF-8' standalone='no'?>
<svg xmlns="http://www.w3.org/2000/svg" width="497pt" viewBox="0 0 497 279" xmlns:xlink="http://www.w3.org/1999/xlink" height="279pt">
 <defs style="stroke:none;" overflow="visible">
  <path id="glyph0-6" d="M 4.015625 -5.359375 L 4.984375 -5.359375 L 2.6875 -2.78125 L 5.171875 0 L 4.15625 0 L 1.734375 -2.71875 L 1.734375 0 L 0.84375 0 L 0.84375 -5.359375 L 1.734375 -5.359375 L 1.734375 -2.765625 Z M 4.015625 -5.359375 "/>
  <path id="glyph0-5" d="M 3 0.09375 C 2.53125 0.09375 2.109375 0 1.734375 -0.1875 C 1.367188 -0.382812 1.078125 -0.6875 0.859375 -1.09375 C 0.648438 -1.5 0.546875 -2.019531 0.546875 -2.65625 C 0.546875 -3.3125 0.65625 -3.84375 0.875 -4.25 C 1.09375 -4.664062 1.390625 -4.96875 1.765625 -5.15625 C 2.148438 -5.351562 2.582031 -5.453125 3.0625 -5.453125 C 3.332031 -5.453125 3.59375 -5.425781 3.84375 -5.375 C 4.101562 -5.320312 4.3125 -5.253906 4.46875 -5.171875 L 4.203125 -4.4375 C 4.035156 -4.5 3.84375 -4.554688 3.625 -4.609375 C 3.414062 -4.660156 3.222656 -4.6875 3.046875 -4.6875 C 1.984375 -4.6875 1.453125 -4.007812 1.453125 -2.65625 C 1.453125 -2.007812 1.582031 -1.515625 1.84375 -1.171875 C 2.101562 -0.828125 2.484375 -0.65625 2.984375 -0.65625 C 3.285156 -0.65625 3.546875 -0.6875 3.765625 -0.75 C 3.984375 -0.8125 4.1875 -0.882812 4.375 -0.96875 L 4.375 -0.1875 C 4.195312 -0.09375 4 -0.0234375 3.78125 0.015625 C 3.5625 0.0664062 3.300781 0.09375 3 0.09375 Z M 3 0.09375 "/>
  <path id="glyph0-4" d="M 6.59375 -5.359375 L 6.59375 0 L 5.8125 0 L 5.8125 -3.421875 C 5.8125 -3.554688 5.816406 -3.703125 5.828125 -3.859375 C 5.835938 -4.015625 5.847656 -4.164062 5.859375 -4.3125 L 5.828125 -4.3125 L 4.078125 0 L 3.34375 0 L 1.640625 -4.3125 L 1.609375 -4.3125 C 1.628906 -4.007812 1.640625 -3.703125 1.640625 -3.390625 L 1.640625 0 L 0.84375 0 L 0.84375 -5.359375 L 2.015625 -5.359375 L 3.703125 -1.046875 L 5.4375 -5.359375 Z M 6.59375 -5.359375 "/>
  <path id="glyph0-3" d="M 5.15625 -4.015625 C 5.15625 -3.679688 5.054688 -3.421875 4.859375 -3.234375 C 4.660156 -3.046875 4.40625 -2.914062 4.09375 -2.84375 L 4.09375 -2.8125 C 4.425781 -2.757812 4.710938 -2.640625 4.953125 -2.453125 C 5.203125 -2.265625 5.328125 -1.96875 5.328125 -1.5625 C 5.328125 -1.113281 5.15625 -0.738281 4.8125 -0.4375 C 4.476562 -0.144531 3.925781 0 3.15625 0 L 0.84375 0 L 0.84375 -5.359375 L 3.15625 -5.359375 C 3.53125 -5.359375 3.867188 -5.316406 4.171875 -5.234375 C 4.472656 -5.148438 4.710938 -5.007812 4.890625 -4.8125 C 5.066406 -4.613281 5.15625 -4.347656 5.15625 -4.015625 Z M 4.265625 -3.90625 C 4.265625 -4.15625 4.171875 -4.335938 3.984375 -4.453125 C 3.804688 -4.566406 3.507812 -4.625 3.09375 -4.625 L 1.734375 -4.625 L 1.734375 -3.15625 L 2.9375 -3.15625 C 3.820312 -3.15625 4.265625 -3.40625 4.265625 -3.90625 Z M 4.421875 -1.5625 C 4.421875 -1.875 4.300781 -2.097656 4.0625 -2.234375 C 3.832031 -2.367188 3.492188 -2.4375 3.046875 -2.4375 L 1.734375 -2.4375 L 1.734375 -0.703125 L 3.0625 -0.703125 C 3.5 -0.703125 3.832031 -0.765625 4.0625 -0.890625 C 4.300781 -1.023438 4.421875 -1.25 4.421875 -1.5625 Z M 4.421875 -1.5625 "/>
  <path id="glyph0-2" d="M 5.515625 -2.6875 C 5.515625 -1.800781 5.285156 -1.113281 4.828125 -0.625 C 4.378906 -0.144531 3.773438 0.09375 3.015625 0.09375 C 2.535156 0.09375 2.109375 -0.0078125 1.734375 -0.21875 C 1.367188 -0.4375 1.078125 -0.753906 0.859375 -1.171875 C 0.648438 -1.585938 0.546875 -2.09375 0.546875 -2.6875 C 0.546875 -3.570312 0.769531 -4.253906 1.21875 -4.734375 C 1.664062 -5.210938 2.273438 -5.453125 3.046875 -5.453125 C 3.523438 -5.453125 3.945312 -5.34375 4.3125 -5.125 C 4.6875 -4.914062 4.976562 -4.601562 5.1875 -4.1875 C 5.40625 -3.78125 5.515625 -3.28125 5.515625 -2.6875 Z M 1.453125 -2.6875 C 1.453125 -2.050781 1.578125 -1.546875 1.828125 -1.171875 C 2.078125 -0.804688 2.476562 -0.625 3.03125 -0.625 C 3.570312 -0.625 3.96875 -0.804688 4.21875 -1.171875 C 4.46875 -1.546875 4.59375 -2.050781 4.59375 -2.6875 C 4.59375 -3.320312 4.46875 -3.816406 4.21875 -4.171875 C 3.96875 -4.535156 3.566406 -4.71875 3.015625 -4.71875 C 2.472656 -4.71875 2.078125 -4.535156 1.828125 -4.171875 C 1.578125 -3.816406 1.453125 -3.320312 1.453125 -2.6875 Z M 1.453125 -2.6875 "/>
  <path id="glyph0-1" d="M 6.4375 0 L 5.53125 0 L 5.53125 -3.328125 L 1.875 -3.328125 L 1.875 0 L 0.96875 0 L 0.96875 -7.140625 L 1.875 -7.140625 L 1.875 -4.125 L 5.53125 -4.125 L 5.53125 -7.140625 L 6.4375 -7.140625 Z M 6.4375 0 "/>
  <path id="glyph0-0" d="M 0.9375 0 L 0.9375 -7.140625 L 5.046875 -7.140625 L 5.046875 0 Z M 1.453125 -0.515625 L 4.546875 -0.515625 L 4.546875 -6.625 L 1.453125 -6.625 Z M 1.453125 -0.515625 "/>
 </defs>
 <image width="497" xlink:href="svg/9/7_15.jpg" height="279"/>
 <g>
  <path d="M 384.457031 54.742188 L 383.550781 54.742188 L 383.550781 51.414062 L 379.894531 51.414062 L 379.894531 54.742188 L 378.988281 54.742188 L 378.988281 47.601562 L 379.894531 47.601562 L 379.894531 50.617188 L 383.550781 50.617188 L 383.550781 47.601562 L 384.457031 47.601562 Z M 384.457031 54.742188 " transform=" rotate(  340 414.364 51.7428) " style="fill:none;stroke-width:3;stroke-linecap:butt;stroke-linejoin:round;stroke:rgb(100%,100%,100%);stroke-opacity:0.6;stroke-miterlimit:10;"/>
  <path d="M 390.945312 52.054688 C 390.945312 52.941406 390.714844 53.628906 390.257812 54.117188 C 389.808594 54.597656 389.203125 54.835938 388.445312 54.835938 C 387.964844 54.835938 387.539062 54.734375 387.164062 54.523438 C 386.796875 54.304688 386.507812 53.988281 386.289062 53.570312 C 386.078125 53.15625 385.976562 52.648438 385.976562 52.054688 C 385.976562 51.171875 386.199219 50.488281 386.648438 50.007812 C 387.09375 49.53125 387.703125 49.289062 388.476562 49.289062 C 388.953125 49.289062 389.375 49.398438 389.742188 49.617188 C 390.117188 49.828125 390.40625 50.140625 390.617188 50.554688 C 390.835938 50.960938 390.945312 51.460938 390.945312 52.054688 Z M 386.882812 52.054688 C 386.882812 52.691406 387.007812 53.195312 387.257812 53.570312 C 387.507812 53.9375 387.90625 54.117188 388.460938 54.117188 C 389 54.117188 389.398438 53.9375 389.648438 53.570312 C 389.898438 53.195312 390.023438 52.691406 390.023438 52.054688 C 390.023438 51.421875 389.898438 50.925781 389.648438 50.570312 C 389.398438 50.207031 388.996094 50.023438 388.445312 50.023438 C 387.902344 50.023438 387.507812 50.207031 387.257812 50.570312 C 387.007812 50.925781 386.882812 51.421875 386.882812 52.054688 Z M 386.882812 52.054688 " transform=" rotate(  340 414.364 51.7428) " style="fill:none;stroke-width:3;stroke-linecap:butt;stroke-linejoin:round;stroke:rgb(100%,100%,100%);stroke-opacity:0.6;stroke-miterlimit:10;"/>
  <path d="M 396.636719 50.726562 C 396.636719 51.0625 396.535156 51.320312 396.339844 51.507812 C 396.140625 51.695312 395.886719 51.828125 395.574219 51.898438 L 395.574219 51.929688 C 395.90625 51.984375 396.191406 52.101562 396.433594 52.289062 C 396.683594 52.476562 396.808594 52.773438 396.808594 53.179688 C 396.808594 53.628906 396.636719 54.003906 396.292969 54.304688 C 395.957031 54.597656 395.40625 54.742188 394.636719 54.742188 L 392.324219 54.742188 L 392.324219 49.382812 L 394.636719 49.382812 C 395.011719 49.382812 395.347656 49.425781 395.652344 49.507812 C 395.953125 49.59375 396.191406 49.734375 396.371094 49.929688 C 396.546875 50.128906 396.636719 50.394531 396.636719 50.726562 Z M 395.746094 50.835938 C 395.746094 50.585938 395.652344 50.40625 395.464844 50.289062 C 395.285156 50.175781 394.988281 50.117188 394.574219 50.117188 L 393.214844 50.117188 L 393.214844 51.585938 L 394.417969 51.585938 C 395.300781 51.585938 395.746094 51.335938 395.746094 50.835938 Z M 395.902344 53.179688 C 395.902344 52.867188 395.78125 52.644531 395.542969 52.507812 C 395.3125 52.375 394.972656 52.304688 394.527344 52.304688 L 393.214844 52.304688 L 393.214844 54.039062 L 394.542969 54.039062 C 394.980469 54.039062 395.3125 53.976562 395.542969 53.851562 C 395.78125 53.71875 395.902344 53.492188 395.902344 53.179688 Z M 395.902344 53.179688 " transform=" rotate(  340 414.364 51.7428) " style="fill:none;stroke-width:3;stroke-linecap:butt;stroke-linejoin:round;stroke:rgb(100%,100%,100%);stroke-opacity:0.6;stroke-miterlimit:10;"/>
  <path d="M 402.753906 52.054688 C 402.753906 52.941406 402.523438 53.628906 402.066406 54.117188 C 401.617188 54.597656 401.011719 54.835938 400.253906 54.835938 C 399.773438 54.835938 399.347656 54.734375 398.972656 54.523438 C 398.605469 54.304688 398.316406 53.988281 398.097656 53.570312 C 397.886719 53.15625 397.785156 52.648438 397.785156 52.054688 C 397.785156 51.171875 398.007812 50.488281 398.457031 50.007812 C 398.902344 49.53125 399.511719 49.289062 400.285156 49.289062 C 400.761719 49.289062 401.183594 49.398438 401.550781 49.617188 C 401.925781 49.828125 402.214844 50.140625 402.425781 50.554688 C 402.644531 50.960938 402.753906 51.460938 402.753906 52.054688 Z M 398.691406 52.054688 C 398.691406 52.691406 398.816406 53.195312 399.066406 53.570312 C 399.316406 53.9375 399.714844 54.117188 400.269531 54.117188 C 400.808594 54.117188 401.207031 53.9375 401.457031 53.570312 C 401.707031 53.195312 401.832031 52.691406 401.832031 52.054688 C 401.832031 51.421875 401.707031 50.925781 401.457031 50.570312 C 401.207031 50.207031 400.804688 50.023438 400.253906 50.023438 C 399.710938 50.023438 399.316406 50.207031 399.066406 50.570312 C 398.816406 50.925781 398.691406 51.421875 398.691406 52.054688 Z M 398.691406 52.054688 " transform=" rotate(  340 414.364 51.7428) " style="fill:none;stroke-width:3;stroke-linecap:butt;stroke-linejoin:round;stroke:rgb(100%,100%,100%);stroke-opacity:0.6;stroke-miterlimit:10;"/>
  <path d="M 409.882812 49.382812 L 409.882812 54.742188 L 409.101562 54.742188 L 409.101562 51.320312 C 409.101562 51.1875 409.105469 51.039062 409.117188 50.882812 C 409.125 50.726562 409.136719 50.578125 409.148438 50.429688 L 409.117188 50.429688 L 407.367188 54.742188 L 406.632812 54.742188 L 404.929688 50.429688 L 404.898438 50.429688 C 404.917969 50.734375 404.929688 51.039062 404.929688 51.351562 L 404.929688 54.742188 L 404.132812 54.742188 L 404.132812 49.382812 L 405.304688 49.382812 L 406.992188 53.695312 L 408.726562 49.382812 Z M 409.882812 49.382812 " transform=" rotate(  340 414.364 51.7428) " style="fill:none;stroke-width:3;stroke-linecap:butt;stroke-linejoin:round;stroke:rgb(100%,100%,100%);stroke-opacity:0.6;stroke-miterlimit:10;"/>
  <path d="M 416.265625 52.054688 C 416.265625 52.941406 416.035156 53.628906 415.578125 54.117188 C 415.128906 54.597656 414.523438 54.835938 413.765625 54.835938 C 413.285156 54.835938 412.859375 54.734375 412.484375 54.523438 C 412.117188 54.304688 411.828125 53.988281 411.609375 53.570312 C 411.398438 53.15625 411.296875 52.648438 411.296875 52.054688 C 411.296875 51.171875 411.519531 50.488281 411.96875 50.007812 C 412.414062 49.53125 413.023438 49.289062 413.796875 49.289062 C 414.273438 49.289062 414.695312 49.398438 415.0625 49.617188 C 415.4375 49.828125 415.726562 50.140625 415.9375 50.554688 C 416.15625 50.960938 416.265625 51.460938 416.265625 52.054688 Z M 412.203125 52.054688 C 412.203125 52.691406 412.328125 53.195312 412.578125 53.570312 C 412.828125 53.9375 413.226562 54.117188 413.78125 54.117188 C 414.320312 54.117188 414.71875 53.9375 414.96875 53.570312 C 415.21875 53.195312 415.34375 52.691406 415.34375 52.054688 C 415.34375 51.421875 415.21875 50.925781 414.96875 50.570312 C 414.71875 50.207031 414.316406 50.023438 413.765625 50.023438 C 413.222656 50.023438 412.828125 50.207031 412.578125 50.570312 C 412.328125 50.925781 412.203125 51.421875 412.203125 52.054688 Z M 412.203125 52.054688 " transform=" rotate(  340 414.364 51.7428) " style="fill:none;stroke-width:3;stroke-linecap:butt;stroke-linejoin:round;stroke:rgb(100%,100%,100%);stroke-opacity:0.6;stroke-miterlimit:10;"/>
  <path d="M 419.800781 54.835938 C 419.332031 54.835938 418.910156 54.742188 418.535156 54.554688 C 418.167969 54.359375 417.878906 54.054688 417.660156 53.648438 C 417.449219 53.242188 417.347656 52.722656 417.347656 52.085938 C 417.347656 51.429688 417.457031 50.898438 417.675781 50.492188 C 417.894531 50.078125 418.191406 49.773438 418.566406 49.585938 C 418.949219 49.390625 419.382812 49.289062 419.863281 49.289062 C 420.132812 49.289062 420.394531 49.316406 420.644531 49.367188 C 420.902344 49.421875 421.113281 49.488281 421.269531 49.570312 L 421.003906 50.304688 C 420.835938 50.242188 420.644531 50.1875 420.425781 50.132812 C 420.214844 50.082031 420.023438 50.054688 419.847656 50.054688 C 418.785156 50.054688 418.253906 50.734375 418.253906 52.085938 C 418.253906 52.734375 418.382812 53.226562 418.644531 53.570312 C 418.902344 53.914062 419.285156 54.085938 419.785156 54.085938 C 420.085938 54.085938 420.347656 54.054688 420.566406 53.992188 C 420.785156 53.929688 420.988281 53.859375 421.175781 53.773438 L 421.175781 54.554688 C 420.996094 54.648438 420.800781 54.71875 420.582031 54.757812 C 420.363281 54.808594 420.101562 54.835938 419.800781 54.835938 Z M 419.800781 54.835938 " transform=" rotate(  340 414.364 51.7428) " style="fill:none;stroke-width:3;stroke-linecap:butt;stroke-linejoin:round;stroke:rgb(100%,100%,100%);stroke-opacity:0.6;stroke-miterlimit:10;"/>
  <path d="M 425.613281 49.382812 L 426.582031 49.382812 L 424.285156 51.960938 L 426.769531 54.742188 L 425.753906 54.742188 L 423.332031 52.023438 L 423.332031 54.742188 L 422.441406 54.742188 L 422.441406 49.382812 L 423.332031 49.382812 L 423.332031 51.976562 Z M 425.613281 49.382812 " transform=" rotate(  340 414.364 51.7428) " style="fill:none;stroke-width:3;stroke-linecap:butt;stroke-linejoin:round;stroke:rgb(100%,100%,100%);stroke-opacity:0.6;stroke-miterlimit:10;"/>
  <path d="M 432.203125 52.054688 C 432.203125 52.941406 431.972656 53.628906 431.515625 54.117188 C 431.066406 54.597656 430.460938 54.835938 429.703125 54.835938 C 429.222656 54.835938 428.796875 54.734375 428.421875 54.523438 C 428.054688 54.304688 427.765625 53.988281 427.546875 53.570312 C 427.335938 53.15625 427.234375 52.648438 427.234375 52.054688 C 427.234375 51.171875 427.457031 50.488281 427.90625 50.007812 C 428.351562 49.53125 428.960938 49.289062 429.734375 49.289062 C 430.210938 49.289062 430.632812 49.398438 431 49.617188 C 431.375 49.828125 431.664062 50.140625 431.875 50.554688 C 432.09375 50.960938 432.203125 51.460938 432.203125 52.054688 Z M 428.140625 52.054688 C 428.140625 52.691406 428.265625 53.195312 428.515625 53.570312 C 428.765625 53.9375 429.164062 54.117188 429.71875 54.117188 C 430.257812 54.117188 430.65625 53.9375 430.90625 53.570312 C 431.15625 53.195312 431.28125 52.691406 431.28125 52.054688 C 431.28125 51.421875 431.15625 50.925781 430.90625 50.570312 C 430.65625 50.207031 430.253906 50.023438 429.703125 50.023438 C 429.160156 50.023438 428.765625 50.207031 428.515625 50.570312 C 428.265625 50.925781 428.140625 51.421875 428.140625 52.054688 Z M 428.140625 52.054688 " transform=" rotate(  340 414.364 51.7428) " style="fill:none;stroke-width:3;stroke-linecap:butt;stroke-linejoin:round;stroke:rgb(100%,100%,100%);stroke-opacity:0.6;stroke-miterlimit:10;"/>
  <path d="M 437.894531 50.726562 C 437.894531 51.0625 437.792969 51.320312 437.597656 51.507812 C 437.398438 51.695312 437.144531 51.828125 436.832031 51.898438 L 436.832031 51.929688 C 437.164062 51.984375 437.449219 52.101562 437.691406 52.289062 C 437.941406 52.476562 438.066406 52.773438 438.066406 53.179688 C 438.066406 53.628906 437.894531 54.003906 437.550781 54.304688 C 437.214844 54.597656 436.664062 54.742188 435.894531 54.742188 L 433.582031 54.742188 L 433.582031 49.382812 L 435.894531 49.382812 C 436.269531 49.382812 436.605469 49.425781 436.910156 49.507812 C 437.210938 49.59375 437.449219 49.734375 437.628906 49.929688 C 437.804688 50.128906 437.894531 50.394531 437.894531 50.726562 Z M 437.003906 50.835938 C 437.003906 50.585938 436.910156 50.40625 436.722656 50.289062 C 436.542969 50.175781 436.246094 50.117188 435.832031 50.117188 L 434.472656 50.117188 L 434.472656 51.585938 L 435.675781 51.585938 C 436.558594 51.585938 437.003906 51.335938 437.003906 50.835938 Z M 437.160156 53.179688 C 437.160156 52.867188 437.039062 52.644531 436.800781 52.507812 C 436.570312 52.375 436.230469 52.304688 435.785156 52.304688 L 434.472656 52.304688 L 434.472656 54.039062 L 435.800781 54.039062 C 436.238281 54.039062 436.570312 53.976562 436.800781 53.851562 C 437.039062 53.71875 437.160156 53.492188 437.160156 53.179688 Z M 437.160156 53.179688 " transform=" rotate(  340 414.364 51.7428) " style="fill:none;stroke-width:3;stroke-linecap:butt;stroke-linejoin:round;stroke:rgb(100%,100%,100%);stroke-opacity:0.6;stroke-miterlimit:10;"/>
  <path d="M 441.5 54.835938 C 441.03125 54.835938 440.609375 54.742188 440.234375 54.554688 C 439.867188 54.359375 439.578125 54.054688 439.359375 53.648438 C 439.148438 53.242188 439.046875 52.722656 439.046875 52.085938 C 439.046875 51.429688 439.15625 50.898438 439.375 50.492188 C 439.59375 50.078125 439.890625 49.773438 440.265625 49.585938 C 440.648438 49.390625 441.082031 49.289062 441.5625 49.289062 C 441.832031 49.289062 442.09375 49.316406 442.34375 49.367188 C 442.601562 49.421875 442.8125 49.488281 442.96875 49.570312 L 442.703125 50.304688 C 442.535156 50.242188 442.34375 50.1875 442.125 50.132812 C 441.914062 50.082031 441.722656 50.054688 441.546875 50.054688 C 440.484375 50.054688 439.953125 50.734375 439.953125 52.085938 C 439.953125 52.734375 440.082031 53.226562 440.34375 53.570312 C 440.601562 53.914062 440.984375 54.085938 441.484375 54.085938 C 441.785156 54.085938 442.046875 54.054688 442.265625 53.992188 C 442.484375 53.929688 442.6875 53.859375 442.875 53.773438 L 442.875 54.554688 C 442.695312 54.648438 442.5 54.71875 442.28125 54.757812 C 442.0625 54.808594 441.800781 54.835938 441.5 54.835938 Z M 441.5 54.835938 " transform=" rotate(  340 414.364 51.7428) " style="fill:none;stroke-width:3;stroke-linecap:butt;stroke-linejoin:round;stroke:rgb(100%,100%,100%);stroke-opacity:0.6;stroke-miterlimit:10;"/>
  <path d="M 447.316406 49.382812 L 448.285156 49.382812 L 445.988281 51.960938 L 448.472656 54.742188 L 447.457031 54.742188 L 445.035156 52.023438 L 445.035156 54.742188 L 444.144531 54.742188 L 444.144531 49.382812 L 445.035156 49.382812 L 445.035156 51.976562 Z M 447.316406 49.382812 " transform=" rotate(  340 414.364 51.7428) " style="fill:none;stroke-width:3;stroke-linecap:butt;stroke-linejoin:round;stroke:rgb(100%,100%,100%);stroke-opacity:0.6;stroke-miterlimit:10;"/>
  <g transform=" rotate(  340 414.364 51.7428) " style="fill:rgb(13.333333%,13.333333%,13.333333%);fill-opacity:1;">
   <use xlink:href="#glyph0-1" y="54.742834" x="378.018946"/>
   <use xlink:href="#glyph0-2" y="54.742834" x="385.428946"/>
   <use xlink:href="#glyph0-3" y="54.742834" x="391.478946"/>
   <use xlink:href="#glyph0-2" y="54.742834" x="397.238946"/>
   <use xlink:href="#glyph0-4" y="54.742834" x="403.288946"/>
   <use xlink:href="#glyph0-2" y="54.742834" x="410.748946"/>
   <use xlink:href="#glyph0-5" y="54.742834" x="416.798946"/>
   <use xlink:href="#glyph0-6" y="54.742834" x="421.598946"/>
   <use xlink:href="#glyph0-2" y="54.742834" x="426.688946"/>
   <use xlink:href="#glyph0-3" y="54.742834" x="432.738946"/>
   <use xlink:href="#glyph0-5" y="54.742834" x="438.498946"/>
   <use xlink:href="#glyph0-6" y="54.742834" x="443.298946"/>
  </g>
 </g>
</svg>

<svg xmlns="http://www.w3.org/2000/svg" xmlns:xlink="http://www.w3.org/1999/xlink" viewBox="0 0 497 279"> <defs overflow="visible" style="stroke:none">  <path id="f" d="M4-5.4h1L2.7-2.8 5.2 0h-1L1.7-2.7V0H.8v-5.4h1v2.6Zm0 0"/>  <path id="e" d="M3 0c-.5 0-.9 0-1.3-.1-.3-.3-.6-.6-.7-.9-.4-.5-.5-1-.5-1.7 0-.6.2-1.1.5-1.5 0-.6.4-.8.8-1.1.2-.1.8-.2 1.2-.2l.8.1.7.2-.3.8-.6-.2H3c-1-.1-1.5.6-1.5 1.9 0 .7 0 1 .3 1.4.3.5.7.6 1.2.6h.8l.6-.3v.8a2 2 0 0 1-.6.2H3Zm0 0"/>  <path id="d" d="M6.6-5.4V0h-.8v-4.3L4.1 0h-.8L1.6-4.3V0H.8v-5.4H2L3.7-1l1.7-4.4Zm0 0"/>  <path id="c" d="M5.2-4c0 .3-.2.6-.3.8l-.9.4 1 .3c.2.2.3.5.3 1 0 .3-.1.7-.5.9-.3.6-.8.6-1.6.6H.8v-5.4h2.4c.3 0 .7 0 1 .2.3 0 .5.2.7.4.1.2.3.5.3.8Zm-1 0c.1-.1.1-.2-.2-.4l-1-.2H1.8v1.4H3c1 0 1.3-.2 1.3-.7Zm.3 2.5c-.1-.4-.2-.5-.4-.7-.3-.2-.6-.2-1.1-.2H1.6v1.7h1.5c.4 0 .7 0 .9-.2.3-.1.4-.3.4-.7Zm-.1-.1"/>  <path id="b" d="M5.5-2.7c0 .9-.2 1.7-.7 2-.4.7-1 .9-1.8.9-.5-.2-.9-.2-1.3-.4-.3-.2-.6-.6-.7-1C.6-1.6.5-2 .5-2.7c0-.9.3-1.6.7-2 .5-.5 1-.8 1.8-.8.5 0 1 .2 1.3.5.4 0 .7.4.9.9.2.2.3.7.3 1.3Zm-4 0c0 .7 0 1.2.3 1.5.3.4.7.6 1.2.6.6 0 1-.2 1.2-.6.3-.3.4-.8.4-1.5s-.1-1.1-.4-1.5c-.2-.3-.6-.5-1.2-.5-.5 0-1 .2-1.2.5-.2.4-.3.9-.3 1.5Zm0 0"/>  <path id="a" d="M6.4 0h-.9v-3.3H2V0H.9v-7.1H2v3h3.5v-3h1Zm0 0"/>  <path d="M1 0v-7.1h4V0Zm.4-.5h3.1v-6.1h-3Zm.1 0"/> </defs> <image xlink:href="svg/9/7_15.jpg" width="497" height="279"/> <path d="M384.5 54.7h-1v-3.3H380v3.3h-1.1v-7.1h1.1v3h3.6v-3h.9ZM391 52c0 1-.4 1.7-.8 2.2-.4.4-1 .6-1.8.6-.4 0-.9 0-1.2-.3-.4-.2-.7-.5-1-1l-.2-1.3c0-1.2.2-1.7.6-2.2.5-.6 1.1-.8 1.9-.8.5.1.9.2 1.2.4.4.2.7.5 1 1l.1 1.4Zm-4.2 0c.1.8.2 1.3.5 1.7.2.2.6.3 1.2.3.5.1.9 0 1.1-.4.4-.4.4-1 .4-1.6 0-.6 0-1.1-.4-1.4-.2-.4-.6-.6-1.2-.6-.4 0-.9.2-1.1.6-.3.3-.4.8-.4 1.4ZM396.6 50.7c0 .4 0 .6-.3.8l-.7.5c.3 0 .6.1.8.3.3.2.4.5.4.9s-.2.8-.5 1.1c-.3.3-.9.4-1.7.4h-2.3v-5.3h2.3l1 .1c.4 0 .7.2.9.5l.1.7Zm-.9.1c0-.2 0-.4-.2-.5l-1-.3h-1.2v1.6h1.1c.9 0 1.3-.3 1.3-.8Zm.3 2.4c-.1-.3-.2-.6-.5-.7l-1-.2h-1.3V54h2.3c.3-.3.5-.5.5-.8ZM402.8 52c0 1-.3 1.7-.8 2.2-.4.4-1 .6-1.7.6-.5 0-1 0-1.3-.3-.4-.2-.7-.5-1-1-.1-.2-.2-.8-.2-1.3 0-1.2.2-1.7.7-2.2.4-.6 1-.8 1.8-.8.5.1.9.2 1.3.4.3.2.6.5.8 1 .2.4.4.9.4 1.4Zm-4.1 0c0 .8.1 1.3.3 1.7.3.2.7.3 1.3.3.5.1 1 0 1.2-.4.2-.4.3-1 .3-1.6 0-.6 0-1.1-.3-1.4-.3-.4-.7-.6-1.2-.6-.6 0-1 .2-1.3.6-.2.3-.3.8-.3 1.4Zm11.2-2.6v5.3h-.9v-4.3l-1.6 4.3h-.8l-1.6-4.3v4.3h-.9v-5.3h1.2l1.7 4.3 1.7-4.3Zm6.4 2.6c0 1-.3 1.7-.7 2.2-.6.4-1 .6-1.8.6-.5 0-1 0-1.3-.3-.5-.2-.7-.5-.9-1-.2-.2-.3-.8-.3-1.3 0-1.2.2-1.7.7-2.2.4-.6 1-.8 1.8-.8.5.1.9.2 1.3.4.3.2.6.5.8 1 .3.4.4.9.4 1.4Zm-4.1 0c0 .8.1 1.3.4 1.7.2.2.6.3 1.2.3.5.1 1 0 1.2-.4.2-.4.3-1 .3-1.6 0-.6 0-1.1-.3-1.4-.3-.4-.7-.6-1.2-.6-.6 0-1 .2-1.2.6-.3.3-.4.8-.4 1.4Zm7.6 2.8c-.5 0-.9 0-1.3-.2-.3-.2-.5-.6-.8-1-.3-.4-.4-.9-.4-1.5 0-.7.2-1.2.4-1.6.2-.5.5-.7.9-1l1.3-.1h.7l.7.3-.3.6-.6-.2h-.6c-1-.1-1.5.6-1.5 1.9 0 .7 0 1.2.3 1.6.4.3.7.4 1.2.4h.8l.6-.2v.8a2 2 0 0 1-.6.2h-.8Zm5.8-5.4h1l-2.3 2.6 2.5 2.7h-1l-2.5-2.7v2.7h-.9v-5.3h1V52Zm6.6 2.6c0 1-.2 1.7-.7 2.2-.4.4-1 .6-1.8.6-.5 0-.9 0-1.3-.3-.3-.2-.6-.5-.9-1-.2-.2-.3-.8-.3-1.3 0-1.2.3-1.7.8-2.2.4-.6 1-.8 1.7-.8.5.1 1 .2 1.3.4.4.2.7.5.9 1 .1.4.3.9.3 1.4Zm-4 0c-.1.8-.1 1.3.2 1.7.4.2.8.3 1.3.3.6.1 1 0 1.3-.4.2-.4.3-1 .3-1.6 0-.6-.1-1.1-.4-1.4-.2-.4-.6-.6-1.2-.6-.5 0-1 .2-1.2.6-.2.3-.4.8-.4 1.4ZM437.9 50.7c0 .4-.1.6-.3.8l-.8.5c.4 0 .6.1.9.3.2.2.3.5.3.9s-.1.8-.4 1.1c-.4.3-1 .4-1.7.4h-2.3v-5.3h2.3l1 .1c.3 0 .5.2.7.5.2.1.4.4.4.7Zm-.9.1c0-.2 0-.4-.3-.5l-.9-.3h-1.3v1.6h1.2c.9 0 1.3-.3 1.3-.8Zm.2 2.4c0-.3-.2-.6-.4-.7l-1-.2h-1.3V54h2.3c.2-.3.4-.5.4-.8Zm4.3 1.6c-.5 0-.9 0-1.3-.2-.2-.2-.6-.6-.8-1-.4-.4-.4-.9-.4-1.5 0-.7.2-1.2.4-1.6.2-.5.5-.7.9-1l1.3-.1h.7l.7.3-.3.6-.6-.2h-.6c-1-.1-1.5.6-1.5 1.9 0 .7 0 1.2.3 1.6.3.3.7.4 1.2.4h.8l.6-.2v.8a2 2 0 0 1-.6.2h-.8Zm5.8-5.4h1L446 52l2.5 2.7h-1L445 52v2.7h-.9v-5.3h1V52Zm0 0" style="fill:none;stroke-width:3;stroke-linecap:butt;stroke-linejoin:round;stroke:#fff;stroke-opacity:.6;stroke-miterlimit:10" transform=" rotate(  340 414.364 51.7428) "/> <g style="fill:#222;fill-opacity:1" transform=" rotate(  340 414.364 51.7428) ">  <use xlink:href="#a" x="378" y="54.7"/>  <use xlink:href="#b" x="385.4" y="54.7"/>  <use xlink:href="#c" x="391.5" y="54.7"/>  <use xlink:href="#b" x="397.2" y="54.7"/>  <use xlink:href="#d" x="403.3" y="54.7"/>  <use xlink:href="#b" x="410.7" y="54.7"/>  <use xlink:href="#e" x="416.8" y="54.7"/>  <use xlink:href="#f" x="421.6" y="54.7"/>  <use xlink:href="#b" x="426.7" y="54.7"/>  <use xlink:href="#c" x="432.7" y="54.7"/>  <use xlink:href="#e" x="438.5" y="54.7"/>  <use xlink:href="#f" x="443.3" y="54.7"/> </g></svg>
